archdroid-icon-theme/Archdroid-Red/apps/scalable/tap-extract-to.svg

<svg fill="#F44336" height="48" viewBox="0 0 48 48" width="48" xmlns="http://www.w3.org/2000/svg"><path d="m12 6c-.93 0-1.760547.429844-2.310547 1.089844l-2.769531 3.359375c-.58.7-.919922 1.580781-.919922 2.550781v25c0 2.21 1.79 4 4 4h28c2.21 0 4-1.79 4-4v-25c0-.97-.340156-1.850781-.910156-2.550781l-2.769531-3.359375c-.56-.66-1.390313-1.089844-2.320313-1.089844zm-.119141 2h24l1.869141 2h-27.5zm12.119141 8 11 11h-7v4h-8v-4h-7zm-11 18.554688h22v2.445312h-22z" fill="#F44336"/></svg>

<svg fill="#F44336" height="48" version="1.1" viewBox="0 0 48 48" width="48" xmlns="http://www.w3.org/2000/svg"><path d="M12 6C11.07 6 10.239453 6.429844 9.689453 7.089844l-2.769531 3.359375C6.339922 11.149219 6 12.03 6 13l0 25c0 2.21 1.79 4 4 4l28 0c2.21 0 4-1.79 4-4l0-25c0-.97-.340156-1.850781-.910156-2.550781L38.320313 7.089844C37.760313 6.429844 36.93 6 36 6L12 6Zm-.119141 2l24 0L37.75 10 10.25 10 11.880859 8ZM24 16l11 11-7 0 0 4-8 0 0-4-7 0 11-11zm-11 18.554688l22 0L35 37 13 37 13 34.554688Z"/></svg>
